apps/www/public/images/logos/publicity/mozilla.svg

<svg width="114" height="60" viewBox="0 0 114 60" fill="none" xmlns="http://www.w3.org/2000/svg">
<path d="M103.092 37.4933C102.89 37.5505 102.718 37.5817 102.547 37.5817C101.939 37.5817 101.653 37.3217 101.653 36.5735V30.9246C101.653 27.9576 99.2886 26.513 96.4929 26.513C94.3569 26.513 93.2091 26.773 90.9275 27.6924L90.4186 30.6857L93.3855 31.0026L93.8064 29.5371C94.4145 29.2203 95.0174 29.1631 95.7964 29.1631C97.9011 29.1631 97.9323 30.7481 97.9323 32.0732V32.5041C97.2674 32.416 96.5189 32.39 95.7964 32.39C92.8294 32.39 89.7429 33.1382 89.7429 36.3391C89.7429 39.0464 91.8733 40.0598 93.7492 40.0598C95.8536 40.0598 97.1786 38.792 97.9271 37.4669C98.0984 39.0516 99.0493 40.0598 100.78 40.0598C101.585 40.0598 102.422 39.8313 103.113 39.4517L103.092 37.4933ZM95.1106 37.4101C93.9881 37.4101 93.5828 36.7452 93.5828 35.9082C93.5828 34.4948 94.7366 34.1207 96.0616 34.1207C96.6645 34.1207 97.3294 34.2091 97.9375 34.2923C97.8491 36.4591 96.4357 37.4101 95.1106 37.4101ZM90.117 19.9398L84.4944 39.7745H80.8313L86.4535 19.9402L90.117 19.9398ZM82.5668 19.9398L76.9442 39.7745H73.286L78.9086 19.9402L82.5668 19.9398ZM66.9569 26.7734H70.8491V31.4394H66.9569V26.7734ZM66.9569 35.1029H70.8491V39.7745H66.9569V35.1029ZM61.2931 34.9313L64.234 35.2173L63.4286 39.7745H52.0694L51.6954 37.8154L58.8454 29.5999H54.7819L54.2054 31.6163L51.5237 31.325L51.9862 26.7682H63.4026L63.6939 28.727L56.481 36.9476H60.6902L61.2931 34.9313ZM42.6642 26.5137C37.9926 26.5137 35.6857 29.6571 35.6857 33.461C35.6857 37.6129 38.455 40.0602 42.4613 40.0602C46.6133 40.0602 49.6118 37.4361 49.6118 33.2845C49.6118 29.6519 47.3306 26.5137 42.6642 26.5137ZM42.5758 37.2073C40.5598 37.2073 39.5204 35.477 39.5204 33.227C39.5204 30.7745 40.6998 29.3663 42.6073 29.3663C44.3633 29.3663 45.7767 30.5457 45.7767 33.1701C45.7767 35.6486 44.5089 37.2073 42.5758 37.2073ZM32.3391 36.9476H34.0695V39.7745H28.6185V32.4528C28.6185 30.2028 27.8703 29.3399 26.3997 29.3399C24.6122 29.3399 23.89 30.6081 23.89 32.4268V36.9476H25.6203V39.7745H20.1746V32.4528C20.1746 30.2028 19.4261 29.3399 17.9558 29.3399C16.1683 29.3399 15.4458 30.6081 15.4458 32.4268V36.9476H17.9246V39.7745H10V36.9476H11.7307V29.5947H10V26.7678H15.4458V28.727C16.2255 27.3451 17.5817 26.5082 19.3952 26.5082C21.2712 26.5082 22.9963 27.4019 23.6352 29.3039C24.3577 27.5735 25.828 26.5082 27.8755 26.5082C30.2084 26.5082 32.3443 27.9216 32.3443 31.003V36.9476H32.3391Z" fill="#7E7E7E"/>
</svg>

<svg xmlns="http://www.w3.org/2000/svg" width="114" height="60" fill="none" viewBox="0 0 114 60"><path fill="#7e7e7e" d="M103.092 37.493a2 2 0 0 1-.545.089c-.608 0-.894-.26-.894-1.008v-5.65c0-2.966-2.364-4.411-5.16-4.411-2.136 0-3.284.26-5.565 1.18l-.51 2.993 2.967.317.421-1.466c.609-.317 1.211-.374 1.99-.374 2.105 0 2.136 1.585 2.136 2.91v.431c-.665-.088-1.413-.114-2.136-.114-2.967 0-6.053.748-6.053 3.95 0 2.706 2.13 3.72 4.006 3.72 2.105 0 3.43-1.268 4.178-2.593.171 1.585 1.122 2.593 2.853 2.593.805 0 1.642-.229 2.333-.608zm-7.981-.083c-1.123 0-1.528-.665-1.528-1.502 0-1.413 1.154-1.787 2.479-1.787.603 0 1.267.088 1.876.171-.089 2.167-1.502 3.118-2.827 3.118m-4.994-17.47-5.623 19.835h-3.663l5.623-19.835zm-7.55 0-5.623 19.835h-3.658l5.623-19.835zm-15.61 6.833h3.892v4.666h-3.892zm0 8.33h3.892v4.672h-3.892zm-5.664-.172 2.941.286-.805 4.558h-11.36l-.374-1.96 7.15-8.215h-4.063l-.577 2.016-2.681-.291.462-4.557h11.417l.29 1.959-7.212 8.22h4.21zm-18.629-8.417c-4.671 0-6.978 3.143-6.978 6.947 0 4.152 2.769 6.6 6.775 6.6 4.152 0 7.15-2.625 7.15-6.776 0-3.633-2.28-6.771-6.947-6.771m-.088 10.693c-2.016 0-3.056-1.73-3.056-3.98 0-2.452 1.18-3.86 3.087-3.86 1.756 0 3.17 1.179 3.17 3.803 0 2.479-1.268 4.037-3.201 4.037m-10.237-.26h1.73v2.828h-5.45v-7.322c0-2.25-.749-3.113-2.22-3.113-1.787 0-2.509 1.268-2.509 3.087v4.52h1.73v2.828h-5.445v-7.322c0-2.25-.749-3.113-2.22-3.113-1.787 0-2.51 1.268-2.51 3.087v4.52h2.48v2.828H10v-2.827h1.73v-7.353H10v-2.827h5.446v1.959c.78-1.382 2.136-2.219 3.95-2.219 1.875 0 3.6.894 4.24 2.796.722-1.73 2.192-2.796 4.24-2.796 2.332 0 4.468 1.414 4.468 4.495v5.945z"/></svg>
